X: 47
T:La Bissette. 
M:2/4
L:1/8
K:G
B2cB/c/|d2zd|efge|eddc|B2cB/c/|d2zd|ecAF|G2G2::
Dddc|cBAG|BAGF|G/F/G/A/ GG|Dddc|cBAG|BAGF|G2G2:|
|:B2B2|BAA2|c2c2|cBc2|Bddd|e/d/e/f/ gd|gdcB|B2A2:|
|:BdBd|cece|dfdf|g/f/e/d/ c/B/A/G/|BdBd|cece|dfdf|g2g2:|
